src/assets/filled/RotateRight.svg

<?xml version="1.0" encoding="UTF-8"?>
<svg width="24" height="24" viewBox="0 0 24 24" xmlns="http://www.w3.org/2000/svg">
 <path d="m16.19 2h-8.38c-3.64 0-5.81 2.17-5.81 5.81v8.37c0 3.65 2.17 5.82 5.81 5.82h8.37c3.64 0 5.81-2.17 5.81-5.81v-8.38c0.01-3.64-2.16-5.81-5.8-5.81zm-4.19 16.58c-3.17 0-5.75-2.58-5.75-5.75 0-3.11 2.48-5.64 5.56-5.75l-0.37-0.43c-0.27-0.31-0.24-0.79 0.07-1.06s0.79-0.24 1.06 0.07l1.66 1.9c0.02 0.02 0.03 0.04 0.05 0.06 0.04 0.06 0.08 0.13 0.1 0.2l0.03 0.12c0.02 0.09 0.01 0.19-0.01 0.28-0.02 0.08-0.05 0.16-0.09 0.24-0.01 0.02-0.03 0.04-0.04 0.06-0.04 0.06-0.1 0.11-0.16 0.15 0 0-0.01 0-0.01 0.01l-1.94 1.42c-0.34 0.24-0.8 0.17-1.05-0.16-0.24-0.33-0.17-0.8 0.16-1.05l0.41-0.3c-2.2 0.16-3.94 2-3.94 4.24 0 2.34 1.91 4.25 4.25 4.25s4.25-1.91 4.25-4.25c0-0.84-0.25-1.66-0.71-2.36-0.23-0.34-0.14-0.81 0.21-1.04s0.81-0.14 1.04 0.21c0.63 0.95 0.97 2.05 0.97 3.19 0 3.17-2.58 5.75-5.75 5.75z"/>
</svg>

<svg width="24" height="24" viewBox="0 0 24 24"  xmlns="http://www.w3.org/2000/svg">
<path d="M16.19 2H7.81C4.17 2 2 4.17 2 7.81V16.18C2 19.83 4.17 22 7.81 22H16.18C19.82 22 21.99 19.83 21.99 16.19V7.81C22 4.17 19.83 2 16.19 2ZM12 18.58C8.83 18.58 6.25 16 6.25 12.83C6.25 9.72 8.73 7.19 11.81 7.08L11.44 6.65C11.17 6.34 11.2 5.86 11.51 5.59C11.82 5.32 12.3 5.35 12.57 5.66L14.23 7.56C14.25 7.58 14.26 7.6 14.28 7.62C14.32 7.68 14.36 7.75 14.38 7.82C14.39 7.86 14.4 7.9 14.41 7.94C14.43 8.03 14.42 8.13 14.4 8.22C14.38 8.3 14.35 8.38 14.31 8.46C14.3 8.48 14.28 8.5 14.27 8.52C14.23 8.58 14.17 8.63 14.11 8.67C14.11 8.67 14.1 8.67 14.1 8.68L12.16 10.1C11.82 10.34 11.36 10.27 11.11 9.94C10.87 9.61 10.94 9.14 11.27 8.89L11.68 8.59C9.48 8.75 7.74 10.59 7.74 12.83C7.74 15.17 9.65 17.08 11.99 17.08C14.33 17.08 16.24 15.17 16.24 12.83C16.24 11.99 15.99 11.17 15.53 10.47C15.3 10.13 15.39 9.66 15.74 9.43C16.09 9.2 16.55 9.29 16.78 9.64C17.41 10.59 17.75 11.69 17.75 12.83C17.75 16 15.17 18.58 12 18.58Z" />
</svg>
